optimized/fill/gift.svg

<svg xmlns="http://www.w3.org/2000/svg" fill="currentColor" viewBox="0 0 24 24" aria-hidden="true">
  <path d="M15.005 2.003a4 4 0 013.464 6h4.536v2h-2v10a1 1 0 01-1 1h-16a1 1 0 01-1-1v-10h-2v-2H5.54a4 4 0 016.465-4.646 3.983 3.983 0 012.999-1.354zm-2 8h-2v10h2v-10zm-4-6a2 2 0 00-.15 3.994l.15.006h2v-2a2 2 0 00-1.697-1.977l-.154-.018-.15-.005zm6 0a2 2 0 00-1.995 1.85l-.005.15v2h2a2 2 0 001.994-1.85l.006-.15a2 2 0 00-2-2z"/>
</svg>

<svg xmlns="http://www.w3.org/2000/svg" viewBox="0 0 24 24" aria-hidden="true">
  <path fill="none" d="M0 0h24v24H0z"/>
  <path d="M15 2a4 4 0 013.464 6.001L23 8v2h-2v10a1 1 0 01-1 1H4a1 1 0 01-1-1V10H1V8l4.536.001A4 4 0 0112 3.355 3.983 3.983 0 0115 2zm-2 8h-2v10h2V10zM9 4a2 2 0 00-.15 3.995L9 8h2V6a2 2 0 00-1.697-1.977l-.154-.018L9 4zm6 0a2 2 0 00-1.995 1.85L13 6v2h2a2 2 0 001.995-1.85L17 6a2 2 0 00-2-2z"/>
</svg>
